src/assets/icons/volume-up.svg

<svg width="14" height="14" viewBox="0 0 14 14" fill="none" xmlns="http://www.w3.org/2000/svg">
<g id="volume-up">
<g clip-path="url(#clip0_156_4573)">
<path id="Vector" fill-rule="evenodd" clip-rule="evenodd" d="M8.16045 1.34398C8.35192 1.436 8.47369 1.62963 8.47369 1.84207V12.1579C8.47369 12.3703 8.35192 12.5639 8.16045 12.6559C7.96898 12.748 7.74171 12.7221 7.57583 12.5894L4.04299 9.76312H0.552632C0.247422 9.76312 0 9.5157 0 9.21049V4.78944C0 4.48423 0.247422 4.2368 0.552632 4.2368H4.04299L7.57583 1.41053C7.74171 1.27783 7.96898 1.25195 8.16045 1.34398ZM7.36842 2.99189L4.58207 5.22097C4.48408 5.29936 4.36233 5.34207 4.23684 5.34207H1.10526V8.65786H4.23684C4.36233 8.65786 4.48408 8.70057 4.58207 8.77896L7.36842 11.008V2.99189ZM11.5784 2.66568C11.8072 2.46365 12.1564 2.48533 12.3584 2.7141C14.5475 5.19288 14.5467 8.80719 12.359 11.2924C12.1574 11.5215 11.8082 11.5438 11.5791 11.3421C11.35 11.1405 11.3277 10.7913 11.5294 10.5622C13.3501 8.49373 13.3494 5.5059 11.53 3.44572C11.328 3.21695 11.3496 2.86772 11.5784 2.66568ZM10.6544 4.73012C10.471 4.48614 10.1246 4.43701 9.8806 4.62039C9.63661 4.80376 9.58748 5.1502 9.77086 5.39418C10.492 6.35373 10.4933 7.63856 9.76985 8.60727C9.58722 8.85181 9.63741 9.1981 9.88194 9.38073C10.1265 9.56336 10.4728 9.51317 10.6554 9.26863C11.6709 7.90892 11.6722 6.08426 10.6544 4.73012Z" fill="black"/>
</g>
</g>
<defs>
<clipPath id="clip0_156_4573">
<rect width="14" height="14" fill="white"/>
</clipPath>
</defs>
</svg>

<svg xmlns="http://www.w3.org/2000/svg" fill="none" viewBox="0 0 14 14"><g clip-path="url(#a)"><path fill="#000" fill-rule="evenodd" d="M8.16 1.344a.55.55 0 0 1 .314.498v10.316a.553.553 0 0 1-.898.431L4.043 9.763H.553A.553.553 0 0 1 0 9.21V4.79c0-.306.247-.553.553-.553h3.49L7.576 1.41a.55.55 0 0 1 .584-.067m-.792 1.648L4.582 5.22a.55.55 0 0 1-.345.121H1.105v3.316h3.132c.125 0 .247.043.345.121l2.786 2.229zm4.21-.326a.553.553 0 0 1 .78.048c2.19 2.479 2.189 6.093.001 8.578a.553.553 0 1 1-.83-.73c1.821-2.068 1.82-5.056.001-7.116a.553.553 0 0 1 .048-.78m-.924 2.064a.553.553 0 0 0-.883.664c.721.96.722 2.245-.001 3.213a.553.553 0 0 0 .885.662 3.76 3.76 0 0 0 0-4.539" clip-rule="evenodd"/></g><defs><clipPath id="a"><path fill="#fff" d="M0 0h14v14H0z"/></clipPath></defs></svg>
